X: 1
T:Long Note, The
R:reel
H:Also as a single jig, #42
D:Deiseal: The Long, Long Note
Z:id:hn-reel-534
M:C|
K:Dmix
|: D3A  AGEF | GE~E2 cEGE | ~D3A  AGEG     |1 A2GA EAAE :|2 A2GE EDD2 ||
[| d2dB cAdB | cAdB  cAG2 | d2dB  cA (3Bcd |  eaag eddc  |
|  d2dB cAdB | cAdB  cAGE | DEFG  AddB     |  cAGE EDD2 ||[K:D]
|: ~a3b afdf | ~g3a  gece | eaag  aged     |  eaag eddf  |
|  ~a3b afdf | g2fg  edcB | ABcd  e2dB     |1 A2GE FDD2 :|2 (3ABA GA EAGE |]
